X: 427
T: Bitlis`te Beş Minare
C: Nazmi Zülfikâr
O: Turkey
F: http://compmusic.upf.edu/node/140
N: hicaz--turku--yuruksemai_ii--bitliste_bes--
N: makam= hicaz
N: form= turku
N: usul= yuruksemai_ii = 6/8
M: 6/8
L: 1/16
K: C _7/8B ^f ^c 
Q: 1/4=150
%%MIDI tuningsystem comma53
A4A8d2c2 d8  | d2c2d8d4 c2{d}c6  | d2e2d2{e}d2 e2d2d2B2 c2{d}c2d2c2  | 
w:  Bit lis te   |  beş  *  mi na re    |  Be ri  gel  *  *  *  *  oğ *  lan   | 
c2B2B6A2d2c2 {e}d8  | A4A8d2c2 {e}d8  | \
w:  be *  ri  *  gel    |  Ci ğe rim   | 
d2B2c4 d2c2c2B2 B6A2  | 
w:  do *  lu  *  *  ya *  re    | 
B2d2c6{d}c2c2B2 B4c2B2  | B2A2A8A12  | \
w:  Be ri  gel  *  *  câ *  nân   |  be *  ri  gel    | 
A4A8d2c2 d8  | d2c2d8d4 c2{d}c6  | 
w:  İs te rem   |  ya *  nan  ge lem    | 
d2e2d2{e}d2 e2d2d2B2 c2{d}c2d2c2  | \
w:  Be ri  gel  *  *  *  *  oğ *  lan   | 
c2B2B6A2d2c2 {e}d8  | A4A8d2c2 {e}d8  | 
w:  be *  ri  *  gel    |  Ce bim de   | 
d2B2c4 d2c2c2B2 B6A2  | B2d2c6{d}c2c2B2 B4c2B2  | \
w:  yok  *  beş  *  *  pa *  re    |  Be ri  gel  *  *  câ *  nân   | 
B2A2A8A12  | 
w:  be *  ri  gel    | 
A4A8d2c2 d8  | d2c2d8d4 c2{d}c6  | d2e2d2{e}d2 e2d2d2B2 c2{d}c2d2c2  | 
w:  Bit lis te   |  beş  *  mi na re    |  Be ri  gel  *  *  *  *  oğ *  lan   | 
c2B2B6A2d2c2 {e}d8  | A4A8d2c2 {e}d8  | \
w:  be *  ri  *  gel    |  Ci ğe rim   | 
d2B2c4 d2c2c2B2 B6A2  | 
w:  do *  lu  *  *  ya *  re    | 
B2d2c6{d}c2c2B2 B4c2B2  | B2A2A8A12  | \
w:  Be ri  gel  *  *  câ *  nân   |  be *  ri  gel    | 
A4A8d2c2 d8  | d2c2d8d4 c2{d}c6  | 
w:  İs te rem   |  ya *  nan  ge lem    | 
d2e2d2{e}d2 e2d2d2B2 c2{d}c2d2c2  | \
w:  Be ri  gel  *  *  *  *  oğ *  lan   | 
c2B2B6A2d2c2 {e}d8  | A4A8d2c2 {e}d8  | 
w:  be *  ri  *  gel    |  Ce bim de   | 
d2B2c4 d2c2c2B2 B6A2  | B2d2c6{d}c2c2B2 B4c2B2  | \
w:  yok  *  beş  *  *  pa *  re    |  Be ri  gel  *  *  câ *  nân   | 
B2A2A8A12  | 
w:  be *  ri  gel    | 
|


